img/logos/sass.svg

<?xml version="1.0" encoding="UTF-8" standalone="no" ?>
<svg width="256px" height="192px" viewBox="0 0 256 192" version="1.1" xmlns="http://www.w3.org/2000/svg" xmlns:xlink="http://www.w3.org/1999/xlink" preserveAspectRatio="xMinYMin meet">
    <g fill="#CD6799">
        <path d="M220.281239,110.513661 C211.374863,110.560291 203.634244,112.705282 197.152641,115.876138 C194.774499,111.166485 192.396357,106.969763 191.976685,103.892168 C191.510383,100.301639 190.95082,98.1100182 191.510383,93.8200364 C192.069945,89.5300546 194.587978,83.4214936 194.541348,82.9551913 C194.494718,82.4888889 193.981785,80.2972678 188.852459,80.2506375 C183.723133,80.2040073 179.29326,81.2298725 178.780328,82.5821494 C178.267395,83.9344262 177.28816,87.0120219 176.635337,90.182878 C175.749362,94.8459016 166.376685,111.492896 161.014208,120.21275 C159.288889,116.808743 157.796721,113.824408 157.47031,111.446266 C157.004007,107.855738 156.444444,105.664117 157.004007,101.374135 C157.56357,97.084153 160.081603,90.975592 160.034973,90.5092896 C159.988342,90.0429872 159.47541,87.8513661 154.346084,87.8047359 C149.216758,87.7581056 144.786885,88.7839709 144.273953,90.1362477 C143.76102,91.4885246 143.201457,94.6593807 142.128962,97.7369763 C141.056466,100.814572 128.606193,128.606193 125.342077,135.78725 C123.663388,139.471038 122.217851,142.408743 121.191985,144.413843 L121.191985,144.413843 C121.191985,144.413843 121.145355,144.553734 121.005464,144.786885 C120.11949,146.512204 119.606557,147.444809 119.606557,147.444809 C119.606557,147.444809 119.606557,147.444809 119.606557,147.491439 C118.907104,148.750455 118.16102,149.916211 117.787978,149.916211 C117.508197,149.916211 116.995264,146.558834 117.881239,141.989071 C119.746448,132.336612 124.176321,117.321676 124.12969,116.808743 C124.12969,116.528962 124.969035,113.917668 121.238616,112.565392 C117.601457,111.213115 116.295811,113.451366 115.969399,113.451366 C115.642987,113.451366 115.409836,114.24408 115.409836,114.24408 C115.409836,114.24408 119.466667,97.3639344 107.669217,97.3639344 C100.301639,97.3639344 90.1362477,105.430965 85.1001821,112.705282 C81.929326,114.430601 75.1679417,118.11439 67.940255,122.07796 C65.189071,123.616758 62.3446266,125.155556 59.6867031,126.601093 C59.5001821,126.414572 59.3136612,126.181421 59.1271403,125.9949 C44.8582878,110.746812 18.4655738,99.9752277 19.5846995,79.5045537 C20.0043716,72.0437158 22.5690346,52.4590164 70.2717668,28.6775956 C109.534426,9.32604736 140.776685,14.6885246 146.185792,26.579235 C153.926412,43.5526412 129.445537,75.0746812 88.8772313,79.6444444 C73.3959927,81.3697632 65.2823315,75.4010929 63.2306011,73.1628415 C61.0856102,70.8313297 60.7591985,70.691439 59.9664845,71.1577413 C58.6608379,71.8571949 59.5001821,73.9555556 59.9664845,75.1679417 C61.1788707,78.3387978 66.168306,83.9344262 74.6083789,86.6856102 C82.0692168,89.1103825 100.208379,90.4626594 122.17122,81.9759563 C146.745355,72.463388 165.957013,46.0240437 160.314754,23.8746812 C154.672495,1.3989071 117.368306,-6.01530055 82.0692168,6.52823315 C61.0856102,13.989071 38.3300546,25.7398907 21.9628415,41.0346084 C2.51803279,59.2204007 -0.559562842,75.028051 0.699453552,81.6495446 C5.22258652,105.151184 37.6306011,120.445902 50.5938069,131.777049 C49.9409836,132.150091 49.3347905,132.476503 48.8218579,132.756284 C42.340255,135.97377 17.6262295,148.890346 11.4710383,162.553005 C4.47650273,178.034244 12.5901639,189.13224 17.9526412,190.624408 C34.5996357,195.240801 51.7129326,186.940619 60.8990893,173.23133 C70.0852459,159.52204 68.9661202,141.70929 64.7227687,133.548998 C64.6761384,133.455738 64.6295082,133.362477 64.5362477,133.269217 C66.2149362,132.289982 67.940255,131.264117 69.6189435,130.284882 C72.9296903,128.326412 76.1938069,126.507832 78.9916211,125.015665 C77.4061931,129.352277 76.2404372,134.528233 75.6808743,141.989071 C74.9814208,150.755556 78.571949,162.133333 83.2816029,166.609836 C85.3799636,168.568306 87.8513661,168.614936 89.4367942,168.614936 C94.9391621,168.614936 97.4105647,164.045173 100.161749,158.636066 C103.519126,152.014572 106.550091,144.320583 106.550091,144.320583 C106.550091,144.320583 102.773042,165.117668 113.031694,165.117668 C116.762113,165.117668 120.539162,160.268124 122.217851,157.796721 L122.217851,157.843352 C122.217851,157.843352 122.311111,157.703461 122.497632,157.377049 C122.870674,156.770856 123.103825,156.397814 123.103825,156.397814 L123.103825,156.304554 C124.595993,153.69326 127.95337,147.77122 132.942805,137.93224 C139.377778,125.248816 145.579599,109.394536 145.579599,109.394536 C145.579599,109.394536 146.139162,113.264845 148.051002,119.699818 C149.170128,123.476867 151.501639,127.626958 153.366849,131.637158 C151.874681,133.735519 150.942077,134.901275 150.942077,134.901275 C150.942077,134.901275 150.942077,134.901275 150.988707,134.947905 C149.776321,136.533333 148.470674,138.258652 147.025137,139.937341 C141.942441,145.999271 135.88051,152.947177 135.041166,154.952277 C134.061931,157.330419 134.295082,159.055738 136.160291,160.454645 C137.512568,161.48051 139.937341,161.620401 142.408743,161.48051 C146.978506,161.154098 150.195993,160.034973 151.781421,159.335519 C154.252823,158.449545 157.143898,157.097268 159.848452,155.092168 C164.837887,151.408379 167.868852,146.139162 167.589071,139.191257 C167.44918,135.367577 166.190164,131.543898 164.651366,127.95337 C165.117668,127.300546 165.537341,126.647723 166.003643,125.9949 C173.884153,114.477231 179.992714,101.840437 179.992714,101.840437 C179.992714,101.840437 180.552277,105.710747 182.464117,112.145719 C183.396721,115.409836 185.308561,118.953734 186.98725,122.404372 C179.573042,128.419672 175.003279,135.414208 173.37122,139.983971 C170.433515,148.470674 172.718397,152.294353 177.055009,153.180328 C179.013479,153.6 181.811293,152.667395 183.863024,151.781421 C186.474317,150.942077 189.551913,149.496539 192.489617,147.351548 C197.479053,143.66776 202.281967,138.538434 202.002186,131.590528 C201.862295,128.419672 201.022951,125.295446 199.857195,122.264481 C206.152277,119.653188 214.265938,118.20765 224.617851,119.420036 C246.813843,122.03133 251.197086,135.88051 250.357741,141.70929 C249.518397,147.538069 244.855373,150.708925 243.316576,151.68816 C241.777778,152.667395 241.264845,152.993807 241.404736,153.69326 C241.591257,154.719126 242.337341,154.672495 243.642987,154.485974 C245.461566,154.159563 255.300546,149.776321 255.720219,139.051366 C256.419672,125.342077 243.363206,110.37377 220.281239,110.513661 L220.281239,110.513661 Z M49.0550091,168.241894 C41.6874317,176.262295 31.4287796,179.29326 26.9989071,176.728597 C22.242623,173.977413 24.1078324,162.133333 33.1540984,153.64663 C38.6564663,148.470674 45.7442623,143.66776 50.4539162,140.730055 C51.5264117,140.077231 53.1118397,139.144627 55.0236794,137.978871 C55.3500911,137.79235 55.536612,137.699089 55.536612,137.699089 L55.536612,137.699089 C55.9096539,137.465938 56.2826958,137.232787 56.6557377,136.999636 C59.9664845,149.123497 56.7956284,159.801821 49.0550091,168.241894 L49.0550091,168.241894 Z M102.679781,131.777049 C100.115118,138.025501 94.7526412,154.019672 91.4885246,153.133698 C88.6907104,152.387614 86.9653916,140.263752 90.9289617,128.279781 C92.9340619,122.264481 97.1774135,115.083424 99.648816,112.28561 C103.659016,107.809107 108.088889,106.31694 109.161384,108.135519 C110.513661,110.513661 104.265209,127.860109 102.679781,131.777049 L102.679781,131.777049 Z M146.931876,152.947177 C145.859381,153.50674 144.833515,153.879781 144.367213,153.6 C144.040801,153.413479 144.833515,152.667395 144.833515,152.667395 C144.833515,152.667395 150.382514,146.698725 152.574135,143.994171 C153.833151,142.408743 155.325319,140.543534 156.910747,138.445173 L156.910747,139.051366 C156.910747,146.185792 150.009472,150.988707 146.931876,152.947177 L146.931876,152.947177 Z M181.065209,145.159927 C180.272495,144.600364 180.412386,142.735155 183.07031,136.906375 C184.096175,134.621494 186.520947,130.797814 190.671038,127.114026 C191.137341,128.606193 191.463752,130.05173 191.417122,131.404007 C191.370492,140.403643 184.935519,143.76102 181.065209,145.159927 L181.065209,145.159927 Z"></path>
    </g>
</svg>

<svg width="256" height="192" viewBox="0 0 256 192" xmlns="http://www.w3.org/2000/svg" preserveAspectRatio="xMinYMin meet"><path d="M220.28 110.514c-8.905.046-16.646 2.19-23.127 5.362-2.38-4.71-4.757-8.906-5.176-11.984-.467-3.59-1.026-5.782-.467-10.072.56-4.29 3.078-10.4 3.03-10.865-.045-.466-.558-2.658-5.688-2.704-5.13-.046-9.56.98-10.072 2.332-.513 1.352-1.492 4.43-2.145 7.6-.886 4.664-10.258 21.31-15.62 30.03-1.726-3.403-3.218-6.388-3.545-8.766-.466-3.59-1.026-5.782-.466-10.072.56-4.29 3.078-10.398 3.03-10.865-.046-.467-.56-2.66-5.688-2.705-5.13-.047-9.56.98-10.072 2.33-.513 1.354-1.073 4.524-2.145 7.602-1.074 3.078-13.524 30.87-16.788 38.05-1.68 3.684-3.124 6.622-4.15 8.627 0 0-.047.14-.187.373-.886 1.725-1.398 2.658-1.398 2.658v.046c-.7 1.26-1.446 2.426-1.82 2.426-.28 0-.792-3.357.094-7.927 1.866-9.653 6.296-24.668 6.25-25.18 0-.28.84-2.892-2.89-4.245-3.64-1.352-4.944.886-5.27.886-.327 0-.56.794-.56.794s4.057-16.88-7.74-16.88c-7.368 0-17.534 8.067-22.57 15.34-3.17 1.727-9.932 5.41-17.16 9.374-2.75 1.54-5.595 3.078-8.253 4.523-.187-.185-.373-.42-.56-.605-14.27-15.248-40.66-26.02-39.542-46.49.42-7.46 2.984-27.046 50.687-50.827 39.262-19.352 70.505-13.99 75.914-2.1 7.74 16.975-16.74 48.497-57.31 53.066-15.48 1.726-23.594-4.243-25.645-6.48-2.144-2.333-2.47-2.473-3.264-2.006-1.305.7-.466 2.798 0 4.01 1.213 3.17 6.202 8.766 14.642 11.518 7.46 2.424 25.6 3.777 47.563-4.71 24.575-9.513 43.787-35.952 38.145-58.1-5.643-22.477-42.947-29.89-78.246-17.348-20.984 7.46-43.74 19.212-60.107 34.507C2.518 59.22-.56 75.028.7 81.65c4.523 23.5 36.93 38.796 49.894 50.127-.653.373-1.26.7-1.772.98-6.482 3.217-31.196 16.133-37.35 29.796-6.995 15.48 1.118 26.58 6.48 28.07 16.648 4.618 33.76-3.682 42.947-17.392 9.185-13.708 8.066-31.52 3.823-39.68-.047-.094-.093-.188-.187-.28 1.68-.98 3.404-2.006 5.083-2.985 3.31-1.96 6.574-3.777 9.372-5.27-1.586 4.337-2.752 9.513-3.31 16.974-.7 8.766 2.89 20.143 7.6 24.62 2.098 1.958 4.57 2.005 6.155 2.005 5.502 0 7.974-4.57 10.725-9.98 3.357-6.62 6.388-14.314 6.388-14.314s-3.777 20.798 6.482 20.798c3.73 0 7.507-4.85 9.186-7.32v.045s.093-.14.28-.466c.373-.606.606-.98.606-.98v-.092c1.492-2.612 4.85-8.534 9.84-18.373 6.434-12.683 12.636-28.537 12.636-28.537s.56 3.87 2.47 10.305c1.12 3.777 3.452 7.927 5.317 11.937-1.492 2.1-2.425 3.264-2.425 3.264l.047.048c-1.214 1.585-2.52 3.31-3.965 4.99-5.083 6.06-11.144 13.01-11.984 15.014-.978 2.378-.745 4.104 1.12 5.503 1.353 1.026 3.777 1.165 6.25 1.026 4.57-.326 7.786-1.445 9.37-2.144 2.473-.886 5.364-2.24 8.068-4.244 4.99-3.684 8.02-8.953 7.74-15.9-.14-3.824-1.398-7.648-2.937-11.24.468-.65.887-1.304 1.354-1.957 7.88-11.518 13.99-24.155 13.99-24.155s.558 3.87 2.47 10.306c.933 3.264 2.845 6.808 4.523 10.258-7.414 6.016-11.984 13.01-13.616 17.58-2.936 8.487-.652 12.31 3.685 13.196 1.958.42 4.756-.513 6.808-1.4 2.61-.838 5.69-2.283 8.627-4.428 4.99-3.684 9.792-8.814 9.512-15.76-.14-3.172-.98-6.297-2.145-9.328 6.295-2.61 14.41-4.056 24.76-2.844 22.197 2.61 26.58 16.46 25.74 22.29-.84 5.828-5.502 9-7.04 9.978-1.54.98-2.052 1.306-1.912 2.005.186 1.026.932.98 2.238.793 1.82-.326 11.658-4.71 12.077-15.435.7-13.708-12.357-28.676-35.44-28.536zM49.056 168.242c-7.368 8.02-17.626 11.05-22.056 8.487-4.757-2.753-2.892-14.597 6.154-23.083 5.502-5.176 12.59-9.98 17.3-12.917 1.072-.653 2.658-1.585 4.57-2.75.326-.188.513-.28.513-.28l1.12-.7c3.31 12.123.14 22.802-7.602 31.242zm53.625-36.465c-2.565 6.25-7.927 22.243-11.19 21.357-2.8-.746-4.525-12.87-.56-24.854 2.004-6.016 6.247-13.197 8.72-15.994 4.01-4.477 8.44-5.97 9.51-4.15 1.354 2.378-4.895 19.724-6.48 23.64zm44.252 21.17c-1.073.56-2.098.933-2.565.653-.326-.187.467-.933.467-.933s5.55-5.968 7.74-8.673c1.26-1.585 2.75-3.45 4.337-5.55v.607c0 7.136-6.9 11.94-9.978 13.897zm34.133-7.787c-.793-.56-.653-2.425 2.005-8.254 1.026-2.285 3.45-6.108 7.6-9.792.467 1.492.794 2.938.747 4.29-.047 9-6.48 12.357-10.352 13.756z" fill="#CD6799"/></svg>
